assets/images/icons/src/futbol-o.svg

<?xml version="1.0" encoding="utf-8"?>
<!-- Generated by IcoMoon.io -->
<!DOCTYPE svg PUBLIC "-//W3C//DTD SVG 1.1//EN" "http://www.w3.org/Graphics/SVG/1.1/DTD/svg11.dtd">
<svg version="1.1" xmlns="http://www.w3.org/2000/svg" xmlns:xlink="http://www.w3.org/1999/xlink" width="14" height="14" viewBox="0 0 14 14">
<path fill="#444444" d="M4.758 6.375l2.242-1.625 2.242 1.625-0.852 2.625h-2.773zM7 0q1.422 0 2.719 0.555t2.234 1.492 1.492 2.234 0.555 2.719-0.555 2.719-1.492 2.234-2.234 1.492-2.719 0.555-2.719-0.555-2.234-1.492-1.492-2.234-0.555-2.719 0.555-2.719 1.492-2.234 2.234-1.492 2.719-0.555zM11.836 10.547q1.164-1.586 1.164-3.547v-0.023l-0.797 0.695-1.875-1.75 0.492-2.523 1.047 0.094q-1.172-1.609-3.039-2.203l0.414 0.969-2.242 1.242-2.242-1.242 0.414-0.969q-1.867 0.594-3.039 2.203l1.055-0.094 0.484 2.523-1.875 1.75-0.797-0.695v0.023q0 1.961 1.164 3.547l0.234-1.031 2.547 0.312 1.086 2.328-0.906 0.539q0.914 0.305 1.875 0.305t1.875-0.305l-0.906-0.539 1.086-2.328 2.547-0.312z"></path>
</svg>

<svg xmlns="http://www.w3.org/2000/svg" width="14" height="14" viewBox="0 0 14 14"><path fill="#444" d="M4.758 6.375L7 4.75l2.242 1.625L8.39 9H5.617zM7 0q1.422 0 2.719.555t2.234 1.492 1.492 2.234T14 7t-.555 2.719-1.492 2.234-2.234 1.492T7 14t-2.719-.555-2.234-1.492T.555 9.719 0 7t.555-2.719 1.492-2.234T4.281.555 7 0zm4.836 10.547Q13 8.961 13 7v-.023l-.797.695-1.875-1.75.492-2.523 1.047.094Q10.695 1.884 8.828 1.29l.414.969L7 3.501 4.758 2.259l.414-.969q-1.867.594-3.039 2.203l1.055-.094.484 2.523-1.875 1.75L1 6.977V7q0 1.961 1.164 3.547l.234-1.031 2.547.312 1.086 2.328-.906.539Q6.039 13 7 13t1.875-.305l-.906-.539 1.086-2.328 2.547-.312z"/></svg>
